!!!OTL: Alte Kuckukslieder (Kuckuks Noth)
!!!ARE: Europa, Mitteleuropa, Deutschland
!!!SCT: A0170C
!!!YEM: Copyright 1995, estate of Helmut Schaffrath.
**kern
*ICvox
*Ivox
!! Mixed meters:  3/4; 4/4
*M4/4
*k[b-]
*F:
{4f
=1
4g
4g
4g
=2
2d
4f
=3
4e
2d
=4
2c
4r}
=5
{4c
=6
4f
4c
4f
4g
=7
2a
4g
4g
=8
4a
4a
4g
4g
=9
*M3/4
2a
4g}
=10
{4g
=11
*M4/4
2f
2a
=12
4cc
4a
4cc
4a
=13
4cc
4a
4cc
4a
=14
2b-
2g
=15
2.f}
==
!!!AGN: Romanze, Ballade, Lied
!! Aus Fragmenten in Schmeltzels neuntem Quodlibet (1544) von mir
!!    zusammengefuegt. Anders und ohne alle musikalische Ruecksicht
!!    von Uhland No. 14 zusammengesetzt.
!!!ONB: ESAC (Essen Associative Code) Database: ALTDEU
!!!AMT: irregular
!!!AIN: vox
!!!EED: Helmut Schaffrath
!!!EEV: 1.0
*-
